findly-builder/apps/searchassist/src/assets/icons/resultranking/dropdowndown.svg

<svg width="12" height="12" viewBox="0 0 12 12" fill="none" xmlns="http://www.w3.org/2000/svg">
<path fill-rule="evenodd" clip-rule="evenodd" d="M5.88477 8.5625C6.03711 8.5625 6.16895 8.50684 6.28027 8.39551L10.2178 4.45801C10.3291 4.34668 10.3848 4.21484 10.3848 4.0625C10.3848 3.91016 10.3291 3.77832 10.2178 3.66699C10.1064 3.55566 9.97461 3.5 9.82227 3.5L1.94727 3.5C1.79492 3.5 1.66309 3.55566 1.55176 3.66699C1.44043 3.77832 1.38477 3.91016 1.38477 4.0625C1.38477 4.21484 1.44043 4.34668 1.55176 4.45801L5.48926 8.39551C5.60059 8.50684 5.73242 8.5625 5.88477 8.5625Z" fill="#A8C8DD"/>
</svg>

<svg width="12" height="12" fill="none" xmlns="http://www.w3.org/2000/svg"><path fill-rule="evenodd" clip-rule="evenodd" d="M5.885 8.563a.54.54 0 0 0 .395-.167l3.938-3.938a.54.54 0 0 0 .167-.396.54.54 0 0 0-.167-.395.54.54 0 0 0-.396-.167H1.947a.54.54 0 0 0-.395.167.54.54 0 0 0-.167.396.54.54 0 0 0 .167.395l3.937 3.938a.54.54 0 0 0 .396.166Z" fill="#A8C8DD"/></svg>
